src/assets/icons/map-icons/selected.svg

<svg width="42" height="47" viewBox="0 0 42 47" fill="none" xmlns="http://www.w3.org/2000/svg">
<g filter="url(#filter0_d_6567_5288)">
<mask id="path-1-inside-1_6567_5288" fill="white">
<path fill-rule="evenodd" clip-rule="evenodd" d="M6 19.5673C6 20.0943 6.02562 20.6254 6.0762 21.1463C6.54744 30.4454 16.7342 37.2117 20.2673 38.8499C20.5288 38.9535 20.7762 39 21.0298 39C21.3066 39 21.5099 38.9592 21.7722 38.8477L21.955 38.7631C21.9845 38.749 22.0147 38.7344 22.0463 38.7193C23.5985 37.9698 26.957 35.9308 29.9709 32.9089C33.719 29.151 35.7221 25.188 35.925 21.1294C35.9747 20.6119 36 20.0862 36 19.5673C36 10.9835 29.2711 4 21 4C12.7289 4 6 10.9835 6 19.5673Z"/>
</mask>
<path fill-rule="evenodd" clip-rule="evenodd" d="M6 19.5673C6 20.0943 6.02562 20.6254 6.0762 21.1463C6.54744 30.4454 16.7342 37.2117 20.2673 38.8499C20.5288 38.9535 20.7762 39 21.0298 39C21.3066 39 21.5099 38.9592 21.7722 38.8477L21.955 38.7631C21.9845 38.749 22.0147 38.7344 22.0463 38.7193C23.5985 37.9698 26.957 35.9308 29.9709 32.9089C33.719 29.151 35.7221 25.188 35.925 21.1294C35.9747 20.6119 36 20.0862 36 19.5673C36 10.9835 29.2711 4 21 4C12.7289 4 6 10.9835 6 19.5673Z" fill="#13C1AC"/>
<path d="M6.0762 21.1463L9.07235 20.9944L9.06885 20.9252L9.06215 20.8563L6.0762 21.1463ZM20.2673 38.8499L19.0053 41.5716L19.0828 41.6075L19.1621 41.6389L20.2673 38.8499ZM21.7722 38.8477L22.9459 41.6086L22.9892 41.5902L23.0319 41.5704L21.7722 38.8477ZM21.955 38.7631L23.2147 41.4858L23.2319 41.4778L23.2491 41.4696L21.955 38.7631ZM22.0463 38.7193L23.3405 41.4258L23.3507 41.4209L22.0463 38.7193ZM29.9709 32.9089L27.8468 30.7903L27.8468 30.7904L29.9709 32.9089ZM35.925 21.1294L32.9387 20.8424L32.9321 20.9109L32.9287 20.9797L35.925 21.1294ZM3 19.5673C3 20.1904 3.03023 20.8183 3.09025 21.4362L9.06215 20.8563C9.021 20.4326 9 19.9982 9 19.5673H3ZM3.08004 21.2981C3.3693 27.0061 6.60768 31.6853 9.89824 34.9883C13.2102 38.3128 16.9373 40.6127 19.0053 41.5716L21.5292 36.1282C20.0641 35.4489 16.9313 33.5466 14.1489 30.7536C11.345 27.9391 9.25434 24.5856 9.07235 20.9944L3.08004 21.2981ZM19.1621 41.6389C19.7615 41.8764 20.3832 42 21.0298 42V36C21.0896 36 21.1565 36.0058 21.2247 36.0191C21.2923 36.0322 21.3428 36.0491 21.3724 36.0609L19.1621 41.6389ZM21.0298 42C21.7119 42 22.3143 41.8771 22.9459 41.6086L20.5986 36.0868C20.6079 36.0828 20.6857 36.0509 20.8061 36.0263C20.9274 36.0016 21.0144 36 21.0298 36V42ZM23.0319 41.5704L23.2147 41.4858L20.6954 36.0403L20.5126 36.1249L23.0319 41.5704ZM23.2491 41.4696C23.2664 41.4613 23.2836 41.4531 23.2984 41.446C23.3138 41.4386 23.3272 41.4322 23.3405 41.4258L20.7521 36.0129C20.5249 36.1215 20.8744 35.9545 20.661 36.0565L23.2491 41.4696ZM23.3507 41.4209C25.1677 40.5436 28.8137 38.3175 32.095 35.0274L27.8468 30.7904C25.1004 33.544 22.0293 35.3961 20.7418 36.0178L23.3507 41.4209ZM32.095 35.0274C36.203 30.9088 38.6712 26.283 38.9212 21.2792L32.9287 20.9797C32.7731 24.093 31.2351 27.3933 27.8468 30.7903L32.095 35.0274ZM38.9112 21.4165C38.9701 20.8039 39 20.1825 39 19.5673H33C33 19.99 32.9793 20.4198 32.9387 20.8424L38.9112 21.4165ZM39 19.5673C39 9.43263 31.0319 1 21 1V7C27.5102 7 33 12.5344 33 19.5673H39ZM21 1C10.9681 1 3 9.43263 3 19.5673H9C9 12.5344 14.4898 7 21 7V1Z" fill="white" mask="url(#path-1-inside-1_6567_5288)"/>
<circle cx="21" cy="19" r="6" fill="white"/>
</g>
<defs>
<filter id="filter0_d_6567_5288" x="0" y="0" width="42" height="47" filterUnits="userSpaceOnUse" color-interpolation-filters="sRGB">
<feFlood flood-opacity="0" result="BackgroundImageFix"/>
<feColorMatrix in="SourceAlpha" type="matrix" values="0 0 0 0 0 0 0 0 0 0 0 0 0 0 0 0 0 0 127 0" result="hardAlpha"/>
<feOffset dy="2"/>
<feGaussianBlur stdDeviation="3"/>
<feColorMatrix type="matrix" values="0 0 0 0 0.145098 0 0 0 0 0.196078 0 0 0 0 0.219608 0 0 0 0.15 0"/>
<feBlend mode="normal" in2="BackgroundImageFix" result="effect1_dropShadow_6567_5288"/>
<feBlend mode="normal" in="SourceGraphic" in2="effect1_dropShadow_6567_5288" result="shape"/>
</filter>
</defs>
</svg>

<svg width="42" height="47" fill="none" xmlns="http://www.w3.org/2000/svg"><g filter="url(#a)"><mask id="b" fill="#fff"><path fill-rule="evenodd" clip-rule="evenodd" d="M6 19.567c0 .527.026 1.058.076 1.58.471 9.298 10.658 16.065 14.191 17.703.262.103.51.15.763.15.277 0 .48-.04.742-.152l.183-.085.091-.044c1.553-.75 4.911-2.788 7.925-5.81 3.748-3.758 5.751-7.721 5.954-11.78.05-.517.075-1.043.075-1.562C36 10.983 29.271 4 21 4S6 10.983 6 19.567Z"/></mask><path fill-rule="evenodd" clip-rule="evenodd" d="M6 19.567c0 .527.026 1.058.076 1.58.471 9.298 10.658 16.065 14.191 17.703.262.103.51.15.763.15.277 0 .48-.04.742-.152l.183-.085.091-.044c1.553-.75 4.911-2.788 7.925-5.81 3.748-3.758 5.751-7.721 5.954-11.78.05-.517.075-1.043.075-1.562C36 10.983 29.271 4 21 4S6 10.983 6 19.567Z" fill="#13C1AC"/><path d="m6.076 21.146 2.996-.152-.003-.069-.007-.069-2.986.29ZM20.267 38.85l-1.262 2.722.078.035.08.032 1.104-2.79Zm1.505-.002 1.174 2.76.043-.018.043-.02-1.26-2.722Zm.183-.085 1.26 2.723.017-.008.017-.008-1.294-2.707Zm.091-.044 1.294 2.707.01-.005-1.304-2.702Zm7.925-5.81-2.124-2.119 2.124 2.119Zm5.954-11.78-2.986-.287-.007.069-.003.069 2.996.15ZM3 19.567c0 .623.03 1.251.09 1.87l5.972-.58A13.4 13.4 0 0 1 9 19.566H3Zm.08 1.731c.29 5.708 3.528 10.387 6.818 13.69 3.312 3.325 7.04 5.625 9.107 6.584l2.524-5.444c-1.465-.68-4.598-2.581-7.38-5.374-2.804-2.815-4.895-6.168-5.077-9.76l-5.992.304Zm16.082 20.34c.6.238 1.221.362 1.868.362v-6a1.03 1.03 0 0 1 .342.06l-2.21 5.579ZM21.03 42c.682 0 1.284-.123 1.916-.391l-2.347-5.522c.009-.004.087-.036.207-.06.121-.025.208-.027.224-.027v6Zm2.002-.43.183-.084-2.52-5.446-.182.085 2.519 5.445Zm.217-.1.05-.024.041-.02-2.588-5.413c-.227.108.122-.058-.091.044l2.588 5.413Zm.102-.05c1.817-.876 5.463-3.102 8.744-6.393l-4.248-4.237c-2.747 2.754-5.818 4.606-7.105 5.228l2.609 5.403Zm8.744-6.393c4.108-4.118 6.576-8.744 6.826-13.748l-5.992-.3c-.156 3.114-1.694 6.414-5.082 9.811l4.248 4.237Zm6.816-13.61a19.39 19.39 0 0 0 .089-1.85h-6c0 .423-.02.853-.061 1.275l5.972.575Zm.089-1.85C39 9.433 31.032 1 21 1v6c6.51 0 12 5.534 12 12.567h6ZM21 1C10.968 1 3 9.433 3 19.567h6C9 12.534 14.49 7 21 7V1Z" fill="#fff" mask="url(#b)"/><circle cx="21" cy="19" r="6" fill="#fff"/></g><defs><filter id="a" x="0" y="0" width="42" height="47" filterUnits="userSpaceOnUse" color-interpolation-filters="sRGB"><feFlood flood-opacity="0" result="BackgroundImageFix"/><feColorMatrix in="SourceAlpha" values="0 0 0 0 0 0 0 0 0 0 0 0 0 0 0 0 0 0 127 0" result="hardAlpha"/><feOffset dy="2"/><feGaussianBlur stdDeviation="3"/><feColorMatrix values="0 0 0 0 0.145098 0 0 0 0 0.196078 0 0 0 0 0.219608 0 0 0 0.15 0"/><feBlend in2="BackgroundImageFix" result="effect1_dropShadow_6567_5288"/><feBlend in="SourceGraphic" in2="effect1_dropShadow_6567_5288" result="shape"/></filter></defs></svg>
